X:1
T:James Gibb editions
T:High in heaven the sun shines his worship to Thee  - Barnby
%%score [ ( 1 2 ) ( 3 4 ) ]
L:1/8
Q:1/4=150
M:4/4
K:F
V:1 treble nm="Midi_74"
V:2 treble 
V:3 bass nm="Midi_74"
V:4 bass 
V:1
"^Walsingham (irr.)""^High in heaven the sun shines his worship to Thee""^Joseph Barnby\n(1838-96)" F2 F2 F2 F2 | %1
w: High in heaven the|
 A4 G2 D2 | F4 E2 E2 | F8 || A2 A2 A2 A2 | c2 c2 =B2 A2 |[M:4/4] A4 ^G2 G2 | A8 || %8
w: sun Shines his|wor- ship to|Thee;|The bird in the|bright- ness Sings his|hymn from the|tree.|
 c2 c2"^I" c2"^1" dd | c4 c2 c2 | _e4 d2 c2 | d8 || G2 G2 A2 B2 | (d2 c2) B2 G2 | F4 C2 A2 | %15
w: Thou art praised on the|earth, Thou art|praised in the|sky,|Last comes Thine own|crea\- * ture, To|praise Thee, most|
 (G4 F4) || F8 | F8 |] %18
w: High. *|A-|men.|
V:2
 C2 C2 D2 D2 | E4 D2 D2 | C4 C2 C2 | C8 || F2 F2 F2 F2 | E2 E2 F2 F2 |[M:4/4] =B,4 E2 E2 | E8 || %8
 E2 E2 E2 FF | E4 F2 F2 | G4 F2 F2 | F8 || !courtesy!=E2 E2 E2 E2 | (F2 _E2) D2 D2 | C4 C2 F2 | %15
 (E4 F4) || D8 | C8 |] %18
V:3
 A,2 A,2 A,2 A,2 | C4 B,2 B,2 | A,4 G,2 B,2 | A,8 || C2 C2 D2 D2 | C2 C2 D2 C2 | %6
[M:4/4] =B,4 B,2 B,2 | C8 || B,2 B,2 B,2 A,A, | B,4 A,2 A,2 | B,4 A,2 A,2 | B,8 || C2 C2 C2 B,2 | %13
 (A,2 F,2) F,2 G,2 | A,4 A,2 F,2 | (B,4 A,4) || B,8 | A,8 |] %18
V:4
 F,2 F,2 D,2 D,2 | A,,4 B,,2 B,,2 | C,4 C,2 C,2 | F,8 || F,2 F,2 D,2 D,2 | A,,2 A,,2 D,2 D,2 | %6
[M:4/4] E,4 E,2 E,2 | A,8 || G,2 G,2 G,2 F,F, | G,4 F,2 F,2 | _E,4 F,2 F,2 | B,,8 || %12
 B,2 B,2 A,2 G,2 | F,4 B,,2 B,,2 | C,4 C,2 C,2 | (C,4 F,4) || B,,8 | F,8 |] %18

